X:85
T:Shallow Brown (d)
M:4/4
L:1/4
Q:1/4=90
K:DMix
DG B>A|G A3|A A2 B|AG E2|
BB A>G|E D3|E G2 D|EG D2||
